X:1
T:Rosslyn, 77.77.77
T:English melody
T:Rosslyn, 77.77.77
T:Public Domain
C:English melody
Z:Public Domain
%%score ( 1 2 ) ( 3 4 )
L:1/8
M:4/4
K:E
V:1 treble 
V:2 treble 
V:3 bass 
V:4 bass 
V:1
 E2 (EF) [EG]2 E2 | [EF]2 [EF]2 (E2 D2) | [DF]2 (FG) [B,A]2 [B,D]2 | [B,E]2 [EG]2 (E2 D2) | %4
 (Bc)([EB][FA]) [EG]2 E2 | [EA]2 [EB]2 [Ec]4 | [Ee]2 (dc) [EB]2 E2 | [EG]2 [EF]2 (E2 D2) | %8
 (Bc)BA [EG]2 E2 | [EA]2 (E=D) [Cc]4 | [Ce]2 (dc) [EB]2 E2 | [EG]2 [DF]2 E4 |] %12
V:2
 E2 E2 x E2 x | x4 F4 | x2 B,2 x4 | x4 B4 | D2 x3 E2 x | x8 | x2 E2 x E2 x | x4 F4 | D2 F2 x E2 x | %9
 x2 B2 x4 | x2 E2 x E2 x | x4 E4 |] %12
V:3
 [E,G,]2 (G,A,) [E,B,]2 [G,,B,]2 | [A,,C]2 [^A,,C]2 [B,,B,]4 | [B,,B,]2 (A,G,) [B,,F,]2 [B,,A,]2 | %3
 G,2 [E,B,]2 (G,2 F,2) | [B,,B,]2 (C,D,) [E,B,]2 [E,G,]2 | [E,C]2 [E,G,]2 A,4 | %6
 [A,,C]2 [A,,C]2 [E,G,]2 [E,G,]2 | [B,,B,]2 [B,,B,]2 B,4 | [A,B,]2 [D,B,]2 [E,B,]2 (E,=D,) | %9
 (E,F,) [B,,G,]2 [A,,A,]4 | [A,,A,]2 (A,,C,) [E,G,]2 [C,^A,]2 | [B,,B,]2 [B,,A,]2 [E,G,]4 |] %12
V:4
 x2 E,2 x4 | x8 | x2 B,,2 x4 | G,2 B,,4 x2 | x2 B,2 x4 | x4 A,4 | x8 | x4 B,4 | x6 G,2 | C,2 x6 | %10
 x2 ^A,2 x4 | x8 |] %12

